prod/images/flags-4x3/is.svg

<svg viewBox="0 0 640 480" xmlns="http://www.w3.org/2000/svg" xmlns:xlink="http://www.w3.org/1999/xlink"><clipPath id="a"><path d="m0 0h640v480h-640z"/></clipPath><g clip-path="url(#a)" fill-rule="evenodd" stroke-width="0"><path d="m0 0h666.7v480h-666.7z" fill="#003897"/><path d="m0 186.7h186.7v-186.7h106.6v186.7h373.4v106.6h-373.4v186.7h-106.6v-186.7h-186.7z" fill="#fff"/><path d="m0 213.3h213.3v-213.3h53.4v213.3h400v53.4h-400v213.3h-53.4v-213.3h-213.3z" fill="#d72828"/></g></svg>

<svg viewBox="0 0 640 480" xmlns="http://www.w3.org/2000/svg"><clipPath id="a"><path d="M0 0h640v480H0z"/></clipPath><g clip-path="url(#a)" fill-rule="evenodd" stroke-width="0"><path d="M0 0h666.7v480H0z" fill="#003897"/><path d="M0 186.7h186.7V0h106.6v186.7h373.4v106.6H293.3V480H186.7V293.3H0z" fill="#fff"/><path d="M0 213.3h213.3V0h53.4v213.3h400v53.4h-400V480h-53.4V266.7H0z" fill="#d72828"/></g></svg>
